X: 18881
T: In Memory Of Coleman
R: reel
M: 4/4
K: Adorian
|:EAce dcAG|~E3G AGED|EAcd eaab|(3c'ba ag eaab|
(3c'ba ag aged|cdcA GEDE|GAce decd|eaed cAAB:|
|:cBce ~a3g|f~d3 B~G3|ceag gedB|GA (3Bcd cAAB|
c2gc Acgc|c2gc BGGB|ABcd eaba|gedB cAAB:|

